dist/styles/ag-theme-alpine/icons/grip.svg

<!-- Generated by IcoMoon.io -->
<svg version="1.1" xmlns="http://www.w3.org/2000/svg" width="32" height="32" viewBox="0 0 32 32">
<title>grip</title>
<path d="M8 24h-2v-4h2v4zM14 24h-2v-4h2v4zM20 24h-2v-4h2v4zM26 24h-2v-4h2v4zM8 18h-2v-4h2v4zM14 18h-2v-4h2v4zM20 18h-2v-4h2v4zM26 18h-2v-4h2v4zM8 12h-2v-4h2v4zM14 12h-2v-4h2v4zM20 12h-2v-4h2v4zM26 12h-2v-4h2v4z"></path>
</svg>

<?xml version="1.0" encoding="UTF-8" standalone="no"?>
<!DOCTYPE svg PUBLIC "-//W3C//DTD SVG 1.1//EN" "http://www.w3.org/Graphics/SVG/1.1/DTD/svg11.dtd">
<svg width="100%" height="100%" viewBox="0 0 32 32" version="1.1" xmlns="http://www.w3.org/2000/svg" xmlns:xlink="http://www.w3.org/1999/xlink" xml:space="preserve" xmlns:serif="http://www.serif.com/" style="fill-rule:evenodd;clip-rule:evenodd;stroke-linejoin:round;stroke-miterlimit:2;">
    <path id="grip" d="M8,24L6,24L6,20L8,20L8,24ZM14,24L12,24L12,20L14,20L14,24ZM20,24L18,24L18,20L20,20L20,24ZM26,24L24,24L24,20L26,20L26,24ZM8,18L6,18L6,14L8,14L8,18ZM14,18L12,18L12,14L14,14L14,18ZM20,18L18,18L18,14L20,14L20,18ZM26,18L24,18L24,14L26,14L26,18ZM8,12L6,12L6,8L8,8L8,12ZM14,12L12,12L12,8L14,8L14,12ZM20,12L18,12L18,8L20,8L20,12ZM26,12L24,12L24,8L26,8L26,12Z" style="fill-rule:nonzero;"/>
</svg>
